public/logos/HV.svg

<?xml version="1.0" encoding="UTF-8"?>
<svg xmlns="http://www.w3.org/2000/svg" xmlns:xlink="http://www.w3.org/1999/xlink" width="176pt" height="31.57pt" viewBox="0 0 176 31.57" version="1.1">
<defs>
<clipPath id="clip1">
  <path d="M 0 0 L 32 0 L 32 31.570312 L 0 31.570312 Z M 0 0 "/>
</clipPath>
</defs>
<g id="surface1">
<g clip-path="url(#clip1)" clip-rule="nonzero">
<path style=" stroke:none;fill-rule:nonzero;fill:rgb(30.860901%,74.952698%,35.702515%);fill-opacity:1;" d="M 31.503906 15.789062 C 31.503906 6.996094 24.546875 0 15.753906 0 C 6.957031 0 0 6.996094 0 15.789062 C 0 24.582031 6.960938 31.570312 15.753906 31.570312 C 24.546875 31.570312 31.503906 24.582031 31.503906 15.789062 L 31.507812 15.789062 L 31.503906 15.789062 "/>
</g>
<path style=" stroke:none;fill-rule:nonzero;fill:rgb(100%,100%,100%);fill-opacity:1;" d="M 22.710938 18.066406 L 21.828125 18.066406 C 20.941406 18.066406 20.5625 18.539062 20.433594 19.453125 C 20.210938 21.132812 18.882812 22.269531 17.144531 22.269531 C 15.121094 22.269531 13.824219 20.785156 13.824219 18.628906 L 13.824219 13.570312 C 13.824219 13.367188 13.796875 13.191406 13.746094 13.03125 C 13.933594 13.117188 14.164062 13.164062 14.425781 13.164062 L 19.074219 13.164062 C 19.960938 13.164062 20.464844 12.65625 20.464844 11.769531 L 20.464844 11.359375 C 20.464844 10.472656 19.960938 9.96875 19.074219 9.96875 L 16.453125 9.96875 L 16.453125 7.117188 C 16.453125 6.234375 15.941406 5.726562 15.058594 5.726562 L 14.425781 5.726562 C 13.539062 5.726562 13.035156 6.234375 13.035156 7.117188 L 13.035156 11.769531 C 13.035156 11.96875 13.058594 12.148438 13.113281 12.308594 C 12.921875 12.222656 12.695312 12.179688 12.433594 12.179688 L 7.785156 12.179688 C 6.898438 12.179688 6.390625 12.6875 6.390625 13.570312 L 6.390625 13.984375 C 6.390625 14.871094 6.898438 15.375 7.785156 15.375 L 10.410156 15.375 L 10.410156 18.628906 C 10.410156 22.710938 13.035156 25.558594 17.148438 25.558594 C 20.976562 25.558594 23.503906 23.121094 23.980469 19.453125 C 24.105469 18.535156 23.503906 18.066406 22.710938 18.066406 "/>
<path style=" stroke:none;fill-rule:nonzero;fill:rgb(30.860901%,74.952698%,35.702515%);fill-opacity:1;" d="M 108.445312 24.460938 C 113.09375 24.460938 115.054688 22.351562 115.054688 19.683594 C 115.054688 16.3125 111.882812 15.476562 109.324219 15.148438 C 107.851562 14.945312 105.582031 14.816406 105.582031 13.359375 C 105.582031 12.28125 106.859375 11.816406 108.445312 11.816406 C 109.878906 11.816406 111.3125 12.191406 112.476562 13.203125 L 114.351562 10.734375 C 112.699219 9.304688 110.78125 8.820312 108.621094 8.820312 C 105.410156 8.820312 101.839844 9.917969 101.839844 13.527344 C 101.839844 16.851562 104.832031 17.734375 107.566406 18.085938 C 109.125 18.285156 111.308594 18.4375 111.308594 19.871094 C 111.308594 20.925781 110.121094 21.414062 108.578125 21.414062 C 106.835938 21.414062 104.546875 20.777344 103.15625 19.320312 L 101.285156 21.789062 C 103.179688 23.886719 106.023438 24.457031 108.445312 24.457031 L 108.445312 24.464844 Z M 84.28125 24.15625 L 87.984375 24.15625 L 87.984375 16.097656 C 87.984375 13.5625 89.613281 12.128906 91.769531 12.128906 C 93.929688 12.128906 95.40625 13.558594 95.40625 16.09375 L 95.40625 24.15625 L 99.105469 24.15625 L 99.105469 15.546875 C 99.105469 11.074219 96.328125 8.828125 92.78125 8.828125 C 90.425781 8.828125 88.683594 9.820312 87.851562 11.230469 L 87.609375 9.136719 L 84.28125 9.136719 L 84.28125 24.160156 Z M 145.1875 24.15625 L 151.597656 9.136719 L 147.742188 9.136719 L 143.355469 20.210938 L 138.96875 9.136719 L 134.871094 9.136719 L 141.28125 24.15625 Z M 167.871094 21.246094 C 165.34375 21.246094 163.445312 19.554688 163.445312 16.644531 C 163.445312 13.738281 165.339844 12.039062 167.875 12.039062 C 170.40625 12.039062 172.304688 13.734375 172.304688 16.644531 C 172.300781 19.550781 170.40625 21.246094 167.875 21.246094 Z M 176 9.136719 L 172.675781 9.136719 L 172.429688 11.226562 C 171.59375 9.839844 169.941406 8.828125 167.367188 8.828125 C 163.246094 8.828125 159.679688 11.398438 159.679688 16.644531 C 159.679688 21.890625 163.25 24.460938 167.367188 24.460938 C 169.941406 24.460938 171.59375 23.453125 172.429688 22.0625 L 172.675781 24.160156 L 176 24.160156 Z M 124.941406 21.246094 C 122.410156 21.246094 120.515625 19.554688 120.515625 16.644531 C 120.515625 13.738281 122.40625 12.039062 124.945312 12.039062 C 127.480469 12.039062 129.375 13.734375 129.375 16.644531 C 129.375 19.550781 127.480469 21.246094 124.945312 21.246094 Z M 133.070312 9.136719 L 129.742188 9.136719 L 129.5 11.226562 C 128.664062 9.839844 127.019531 8.828125 124.4375 8.828125 C 120.316406 8.828125 116.75 11.398438 116.75 16.644531 C 116.75 21.890625 120.316406 24.460938 124.4375 24.460938 C 127.011719 24.460938 128.664062 23.453125 129.5 22.0625 L 129.746094 24.160156 L 133.070312 24.160156 Z M 72.628906 21.246094 C 70.097656 21.246094 68.203125 19.554688 68.203125 16.644531 C 68.203125 13.738281 70.097656 12.039062 72.628906 12.039062 C 75.164062 12.039062 77.058594 13.734375 77.058594 16.644531 C 77.058594 19.550781 75.167969 21.246094 72.628906 21.246094 Z M 153.398438 9.132812 L 153.398438 24.152344 L 157.101562 24.152344 L 157.101562 9.136719 L 153.398438 9.136719 Z M 80.757812 9.132812 L 77.433594 9.132812 L 77.1875 11.226562 C 76.351562 9.839844 74.699219 8.828125 72.121094 8.828125 C 68.003906 8.828125 64.433594 11.398438 64.433594 16.644531 C 64.433594 21.886719 68.003906 24.460938 72.121094 24.460938 C 74.699219 24.460938 76.351562 23.453125 77.191406 22.0625 L 77.433594 24.15625 L 80.753906 24.15625 L 80.753906 9.136719 L 80.757812 9.136719 Z M 46.351562 4.816406 L 42.652344 5.210938 L 42.652344 9.132812 L 39.878906 9.132812 L 39.878906 12.328125 L 42.652344 12.328125 L 42.652344 19.042969 C 42.652344 22.652344 44.722656 24.328125 47.828125 24.328125 C 49.148438 24.328125 50.273438 24.019531 51.066406 23.578125 L 50.074219 20.582031 C 49.546875 20.824219 48.886719 21.003906 48.265625 21.003906 C 47.035156 21.003906 46.351562 20.296875 46.351562 18.867188 L 46.351562 12.328125 L 50.492188 12.328125 L 50.492188 9.136719 L 46.351562 9.136719 Z M 157.453125 5.566406 C 157.453125 4.132812 156.355469 3.40625 155.25 3.40625 C 154.171875 3.40625 153.070312 4.128906 153.070312 5.566406 C 153.070312 7.019531 154.171875 7.722656 155.25 7.722656 C 156.351562 7.722656 157.453125 7.015625 157.453125 5.5625 Z M 53.113281 24.15625 L 56.8125 24.15625 L 56.8125 16.117188 C 56.8125 13.207031 58.398438 12.195312 60.292969 12.195312 C 61.394531 12.195312 62.210938 12.523438 62.960938 13.164062 L 64.632812 10.210938 C 63.621094 9.285156 62.273438 8.828125 60.957031 8.828125 C 59.191406 8.828125 57.476562 9.636719 56.59375 11.226562 L 56.351562 9.136719 L 53.113281 9.136719 L 53.113281 24.15625 L 53.113281 24.152344 L 53.113281 24.15625 "/>
</g>
</svg>

<svg xmlns="http://www.w3.org/2000/svg" width="176pt" height="42.093" viewBox="0 0 176 31.57"><defs><clipPath id="a"><path d="M0 0h32v31.57H0Zm0 0"/></clipPath></defs><g clip-path="url(#a)"><path d="M31.504 15.79C31.504 6.995 24.547 0 15.754 0 6.957 0 0 6.996 0 15.79c0 8.792 6.96 15.78 15.754 15.78 8.793 0 15.75-6.988 15.75-15.78h.004z" style="stroke:none;fill-rule:nonzero;fill:#4fbf5b;fill-opacity:1"/></g><path d="M22.71 18.066h-.882c-.887 0-1.265.473-1.394 1.387-.223 1.68-1.551 2.817-3.29 2.817-2.023 0-3.32-1.485-3.32-3.641V13.57a1.8 1.8 0 0 0-.078-.539c.188.086.418.133.68.133h4.648c.887 0 1.39-.508 1.39-1.394v-.41c0-.887-.503-1.391-1.39-1.391h-2.62V7.117c0-.883-.513-1.39-1.395-1.39h-.633c-.887 0-1.39.507-1.39 1.39v4.653q-.002.298.077.539a1.65 1.65 0 0 0-.68-.13H7.786c-.887 0-1.394.508-1.394 1.391v.414c0 .887.507 1.391 1.394 1.391h2.625v3.254c0 4.082 2.625 6.93 6.738 6.93 3.829 0 6.356-2.438 6.832-6.106.125-.918-.476-1.387-1.27-1.387" style="stroke:none;fill-rule:nonzero;fill:#fff;fill-opacity:1"/><path d="M108.445 24.46c4.649 0 6.61-2.108 6.61-4.776 0-3.372-3.172-4.207-5.73-4.536-1.473-.203-3.743-.332-3.743-1.789 0-1.078 1.277-1.543 2.863-1.543 1.434 0 2.868.375 4.032 1.387l1.875-2.469c-1.653-1.43-3.57-1.914-5.73-1.914-3.212 0-6.782 1.098-6.782 4.707 0 3.325 2.992 4.207 5.726 4.559 1.559.2 3.743.352 3.743 1.785 0 1.055-1.188 1.543-2.73 1.543-1.743 0-4.032-.637-5.423-2.094l-1.87 2.47c1.894 2.097 4.737 2.667 7.16 2.667v.008Zm-24.164-.304h3.703v-8.058c0-2.535 1.63-3.97 3.786-3.97 2.16 0 3.636 1.43 3.636 3.966v8.062h3.7v-8.61c0-4.472-2.778-6.718-6.325-6.718-2.355 0-4.097.992-4.93 2.402l-.242-2.093h-3.328V24.16Zm60.906 0 6.41-15.02h-3.855l-4.387 11.075-4.386-11.074h-4.098l6.41 15.02Zm22.684-2.91c-2.527 0-4.426-1.691-4.426-4.601 0-2.907 1.895-4.606 4.43-4.606 2.531 0 4.43 1.695 4.43 4.606-.004 2.906-1.899 4.601-4.43 4.601ZM176 9.136h-3.324l-.246 2.09c-.836-1.386-2.489-2.398-5.063-2.398-4.12 0-7.687 2.57-7.687 7.817s3.57 7.816 7.687 7.816c2.574 0 4.227-1.008 5.063-2.398l.246 2.097H176Zm-51.059 12.11c-2.53 0-4.425-1.691-4.425-4.601 0-2.907 1.89-4.606 4.43-4.606 2.534 0 4.429 1.695 4.429 4.606 0 2.906-1.895 4.601-4.43 4.601Zm8.13-12.11h-3.329l-.242 2.09c-.836-1.386-2.48-2.398-5.062-2.398-4.122 0-7.688 2.57-7.688 7.817s3.566 7.816 7.688 7.816c2.574 0 4.226-1.008 5.062-2.398l.246 2.097h3.324Zm-60.442 12.11c-2.531 0-4.426-1.691-4.426-4.601 0-2.907 1.895-4.606 4.426-4.606 2.535 0 4.43 1.695 4.43 4.606 0 2.906-1.891 4.601-4.43 4.601m80.77-12.113v15.02h3.703V9.136h-3.704Zm-72.641 0h-3.324l-.246 2.094c-.836-1.387-2.489-2.399-5.067-2.399-4.117 0-7.687 2.57-7.687 7.817 0 5.242 3.57 7.816 7.687 7.816 2.578 0 4.23-1.008 5.07-2.398l.243 2.093h3.32V9.136h.004ZM46.352 4.816l-3.7.395v3.922H39.88v3.195h2.773v6.715c0 3.61 2.07 5.285 5.176 5.285 1.32 0 2.445-.308 3.238-.75l-.992-2.996c-.527.242-1.187.422-1.808.422-1.23 0-1.914-.707-1.914-2.137v-6.539h4.14V9.137h-4.14Zm111.101.75c0-1.433-1.098-2.16-2.203-2.16-1.078 0-2.18.723-2.18 2.16 0 1.454 1.102 2.157 2.18 2.157 1.102 0 2.203-.707 2.203-2.16Zm-104.34 18.59h3.7v-8.039c0-2.91 1.585-3.922 3.48-3.922 1.102 0 1.918.328 2.668.97l1.672-2.954c-1.012-.926-2.36-1.383-3.676-1.383-1.766 0-3.48.809-4.363 2.399l-.242-2.09h-3.239zv-.005z" style="stroke:none;fill-rule:nonzero;fill:#4fbf5b;fill-opacity:1"/></svg>
